X: 719
M: 6/8
L: 1/4
K: G
:|\
g2g gdB | gdB A3 | B>cd efg | aeg f>e d/c/ |\
gfe bBe/f/ | gfe b^de | e>fg f2e | e3- e2e/f/ |
g>fe dcB | ABG FAD | G>AB B>AG | d3- d2d |\
e>fg dcB | c>de e>f g/a/ | fga gaf | g3- g3 |]

